/* XPM */
static char *ice_bolt_28[] = {
  /* width height ncolors chars_per_pixel */
  "2 60 3 1 0 0",
  /* colors */
  "! c #00a0e0",
  "# c #e0ffff",
  "$ c None",
  /* pixels */
  "$!",
  "$!",
  "$!",
  "!!",
  "!!",
  "!!",
  "!!",
  "!!",
  "!!",
  "!!",
  "!!",
  "!!",
  "!!",
  "!!",
  "!!",
  "!!",
  "!!",
  "!!",
  "!!",
  "!!",
  "!!",
  "!#",
  "!#",
  "##",
  "##",
  "##",
  "##",
  "##",
  "##",
  "##",
  "##",
  "##",
  "##",
  "##",
  "##",
  "##",
  "##",
  "#!",
  "#!",
  "!!",
  "!!",
  "!!",
  "!!",
  "!!",
  "!!",
  "!!",
  "!!",
  "!!",
  "!!",
  "!!",
  "!!",
  "!!",
  "!!",
  "!!",
  "!!",
  "!!",
  "!!",
  "!$",
  "!$",
  "!$",
};
