/* XPM */
static char *rail_28[] = {
  /* width height ncolors chars_per_pixel */
  "2 60 3 1 0 0",
  /* colors */
  "! c #0030ff",
  "# c #ffffff",
  "$ c None",
  /* pixels */
  "$!",
  "$!",
  "$!",
  "!!",
  "!!",
  "!!",
  "!!",
  "!!",
  "!!",
  "!!",
  "!!",
  "!!",
  "!!",
  "!!",
  "!!",
  "!!",
  "!!",
  "!!",
  "!!",
  "!!",
  "!!",
  "!#",
  "!#",
  "##",
  "##",
  "##",
  "##",
  "##",
  "##",
  "##",
  "##",
  "##",
  "##",
  "##",
  "##",
  "##",
  "##",
  "#!",
  "#!",
  "!!",
  "!!",
  "!!",
  "!!",
  "!!",
  "!!",
  "!!",
  "!!",
  "!!",
  "!!",
  "!!",
  "!!",
  "!!",
  "!!",
  "!!",
  "!!",
  "!!",
  "!!",
  "!$",
  "!$",
  "!$",
};
