/* XPM */
static char *mine_dormant[] = {
  /* width height ncolors chars_per_pixel */
  "28 16 8 1 0 0",
  /* colors */
  ". c None",
  "! c #000000",
  "# c #803030",
  "$ c #a85050",
  "% c #501c1c",
  "& c #909090",
  "' c #303030",
  "@ c #602020",
  /* pixels */
  ".......!.....!......!.......",
  ".......&.....&......&.......",
  ".......&...!!!!!....&.......",
  "...........!@@@!............",
  "........!!!!@@@!!!!!........",
  ".....!!!!$$!@@@!$$$!!!!.....",
  "...!!!######!!!#######!!!...",
  "..!!####################!!..",
  "..!''&'''''''&'''''''&'''!..",
  "..!!%%%%%%%%%%%%%%%%%%%%!!..",
  "...!!!%%%%%%%%%%%%%%%%!!!...",
  "....&&!!!%%%%&&%%%%!!!&&....",
  "....&&..!!!!!&&!!!!!..&&....",
  "....&&.......&&.......&&....",
  "....!!.......!!.......!!....",
  "............................",
};
