/* XPM */
static char *mine_25[] = {
  /* width height ncolors chars_per_pixel */
  "28 26 8 1 0 0",
  /* colors */
  "! c #000000",
  "# c #400000",
  "$ c #900000",
  "% c #ff9090",
  "& c #b02020",
  "' c #ff2020",
  "( c None",
  ") c #ffe000",
  /* pixels */
  "((((((!!((((((((((((!!((((((",
  "((((!!!!!((((((((((!!!!!((((",
  "(((!!!!!!((((((((((!!!!!!(((",
  "((!!!&&!!!!!!!!!!!!!!&&!!!((",
  "(!!!&!&!!%%%%%%%%%%!!&!&!!!(",
  "(!!&!!&!!%########%!!&!!&!!(",
  "!!!&!!&!!%#$$$$$$#%!!&!!&!!!",
  "!!!&&&&!!%#$$))$$#%!!&&&&!!!",
  "!!!!!!!!!%#$)$$)$#%!!!!!!!!!",
  "!!&&&&&!!%#$)$$)$#%!!&&&&&!!",
  "!!&!!!&!!%#$)$$)$#%!!&!!!&!!",
  "!!&!!!&!!%#$)$$)$#%!!&!!!&!!",
  "!!&!!!&!!%#$$))$$#%!!&!!!&!!",
  "!!&!!!&!!%#$$$$$$#%!!&!!!&!!",
  "!!&!!!&!!%########%!!&!!!&!!",
  "!!&!!!&!!%&&&&&&&&%!!&!!!&!!",
  "!!&&&&&!!%''''''''%!!&&&&&!!",
  "!!!!!!!!!&&&&&&&&&&!!!!!!!!!",
  "!!!&&&&!!%!%!%!%!%!!!&&&&!!!",
  "!!!&!!&!!!%!%!%!%!%!!&!!&!!!",
  "(!!&!!&!!%!%!%!%!%!!!&!!&!!(",
  "(!!!&!&!!&&&&&&&&&&!!&!&!!!(",
  "((!!!&&!!!!!!!!!!!!!!&&!!!((",
  "(((!!!!!!((((((((((!!!!!!(((",
  "((((!!!!!((((((((((!!!!!((((",
  "((((((!!((((((((((((!!((((((",
};
