/* XPM */
static char *mine_25b[] = {
  /* width height ncolors chars_per_pixel */
  "28 26 7 1 0 0",
  /* colors */
  "! c #000000",
  "# c #600000",
  "$ c #200000",
  "% c #480000",
  "& c #803030",
  "' c #501818",
  "( c None",
  /* pixels */
  "((((((!!((((((((((((!!((((((",
  "((((!!!!!((((((((((!!!!!((((",
  "(((!!!!!!((((((((((!!!!!!(((",
  "((!!!''!!!!!!!!!!!!!!''!!!((",
  "(!!!'!'!!&&&&&&&&&&!!'!'!!!(",
  "(!!'!!'!!&$$$$$$$$&!!'!!'!!(",
  "!!!'!!'!!&$%%%%%%$&!!'!!'!!!",
  "!!!''''!!&$%%%%%%$&!!''''!!!",
  "!!!!!!!!!&$%%%%%%$&!!!!!!!!!",
  "!!'''''!!&$%%%%%%$&!!'''''!!",
  "!!'!!!'!!&$%%%%%%$&!!'!!!'!!",
  "!!'!!!'!!&$%%%%%%$&!!'!!!'!!",
  "!!'!!!'!!&$%%%%%%$&!!'!!!'!!",
  "!!'!!!'!!&$%%%%%%$&!!'!!!'!!",
  "!!'!!!'!!&$$$$$$$$&!!'!!!'!!",
  "!!'!!!'!!&''''''''&!!'!!!'!!",
  "!!'''''!!&########&!!'''''!!",
  "!!!!!!!!!''''''''''!!!!!!!!!",
  "!!!''''!!&!&!&!&!&!!!''''!!!",
  "!!!'!!'!!!&!&!&!&!&!!'!!'!!!",
  "(!!'!!'!!&!&!&!&!&!!!'!!'!!(",
  "(!!!'!'!!''''''''''!!'!'!!!(",
  "((!!!''!!!!!!!!!!!!!!''!!!((",
  "(((!!!!!!((((((((((!!!!!!(((",
  "((((!!!!!((((((((((!!!!!((((",
  "((((((!!((((((((((((!!((((((",
};
