/* XPM */
static char *railgun_4[] = {
  "20 18 5 1 0 0",
  "K c #000000",
  "B c #1848c8",
  "C c #e8f0ff",
  "w c #4060a0",
  ". c None",
  "....................",
  "....................",
  "...KKKKKKKKKKKKKKKKK",
  "..KCwwwwwwwwwwwwwwwC",
  "..KCCCCCCCCCCCCCCCCC",
  "..Kwwwwwwwwwwwwwwwww",
  "..KBBBBBBBBBBBBBBBBB",
  "..KCCCCCCCCCCCCCCCCC",
  "..KBBBBBBBBBBKKKKKKK",
  ".KKBBBBBBBBBBK......",
  ".KCBBBBBBBBBK.......",
  ".KBBBBBBBBBK........",
  ".KBBBBBBBBK.........",
  "..KBBBBBK...........",
  "..KBBBBK............",
  "...KBBK.............",
  "...KK...............",
  "....................",
};
