/* XPM */
static char *gravity_well_4[] = {
  "28 28 5 1 0 0",
  "K c #000000",
  "P c #7010b0",
  "B c #3838d0",
  "b c #8080ff",
  ". c None",
  "............................",
  "............................",
  ".........BbBBBBB............",
  ".......bbbbbbbbBBB..........",
  "......bbbbbbbbbbbBB.........",
  ".....bbbbbbBBBBBBbBB........",
  "....bbbbbBBBBBBBBBBB........",
  "...bbbbbBBBBBBBBBBBBB.......",
  "...bbbBBPPPPPPPPBBBBB.......",
  "..bbbBPPPPPPPPPPPPBBBP...B..",
  "..bbBBPPPPPPPPPPPPPBBP...B..",
  "..bBBPPPPPPPKKKKPPPBBPP..B..",
  "..bB.PPPPPPKKKKKKPPPBPP..B..",
  "..BB.PPPPPPKKKKKKPPPPPP..B..",
  "..B..PPPPPPKKKKKKPPPPPP.BB..",
  "..B..PPBPPPKKKKKKPPPPPP.Bb..",
  "..B..PPBBPPPKKKKPPPPPPPBBb..",
  "..B...PBBPPPPPPPPPPPPPBBbb..",
  "..B...PBBBPPPPPPPPPPPPBbbb..",
  ".......BBBBBPPPPPPPPBBbbb...",
  ".......BBBBBBBBBBBBBbbbbb...",
  "........BBBBBBBBBBBbbbbb....",
  "........BBbBBBBBBbbbbbb.....",
  ".........BBbbbbbbbbbbb......",
  "..........BBBbbbbbbbb.......",
  "............BBBBBbB.........",
  "............................",
  "............................",
};
