/* XPM */
static char *cryo_ray_4[] = {
  "20 18 7 1 0 0",
  "K c #000000",
  "T c #0090b0",
  "t c #40d0f0",
  "C c #e0ffff",
  "c c #a0f0ff",
  "W c #306070",
  ". c None",
  "....................",
  "..........KKKKKK....",
  ".........KCcccCK....",
  "....KKKKKCccccCK....",
  "...KTtttKCCCCCCK....",
  "..KTttttTKKKKKK.....",
  "..KTtCCtTK..........",
  "..KTtCCtTK..........",
  "..KTttttTK..........",
  "..KTttttTKKK........",
  "...KTtttWWWK........",
  "....KKKKWWWK........",
  ".......KWWK.........",
  ".......KWWK.........",
  ".......KWWK.........",
  "......KWWK..........",
  "......KK............",
  "....................",
};
