/* XPM */
static char *vampire_20d[] = {
  /* width height ncolors chars_per_pixel */
  "30 66 18 1 0 0",
  /* colors */
  "! c #000000",
  "# c #8b0000",
  "$ c #380600",
  "% c #3a0000",
  "& c #3c0018",
  "' c #16000e",
  "( c #8a7a82",
  ") c #6e0000",
  "* c #2e2e36",
  "+ c #9a9aa2",
  ", c #bcbcc8",
  "- c #a8a8b2",
  ". c #6c6c76",
  "/ c #cc2222",
  "0 c None",
  "1 c #d8d8e2",
  "2 c #e8e8f0",
  "3 c #500000",
  /* pixels */
  "000000000000000000000000000000",
  "000000000000000000000000000000",
  "00+0+0+00000000000000000000000",
  "0+2+++000000000000000000000000",
  "0+222+000000000000000000000000",
  "0+22++0000000000000000000+0000",
  "0+22+0000000000000000++++2+000",
  "0+22+0000000000000000+222++000",
  "+2+++0000000000000000+22+2+000",
  "+22+000000//#//###0000+22++000",
  "+22+0000000/##///#0000+222+000",
  "+222+0000/##/#/###00000+2++000",
  "+222+00000/#/#//#+00000+22++00",
  "+222+00000+#/##/##00000+222+00",
  "+222+00000+#/#//#+00000+22++00",
  "++22+00000##/##/#000000+112+00",
  "0+222++000+#/##/##00000+22++00",
  "0++22++000+#####/+00000+222+00",
  "00+222+000++#/##+%0000++222+00",
  "00+222++%%%%+)*+-%++++22222+00",
  "000+2223)))))).+))222+2222++00",
  "000+222))))))+*-))+222222++000",
  "0000+22)))))*.+))))22222+00000",
  "00000++))))+.*))))))222+000000",
  "000000%))))*++))))))2++0000000",
  "0000000%)))-**))))%0+000000000",
  "00000000%*.++)))))%00000000000",
  "00000000%**-)))3))%00000000000",
  "00000000%*+)))33))%00000000000",
  "00000000*%%%%))))%000000000000",
  "000%%%%0*,,,,%%%%%000000000000",
  "000%3)3%*%%%,,,,,%000000000000",
  "00%)))))))))%%%%%%%00000000000",
  "00%))))))))))))())%00000000000",
  "00%)))))))))))3)))%00000000000",
  "00%)))))))))))))))%00000000000",
  "00%3))))))))3*3))))%0000000000",
  "00!!!))))))3*3))))))%000000000",
  "00!!!**)%)3'%3))))))%000000000",
  "00!!!)*!0%%*0%3))))))%00000000",
  "00!!!**!000000*)))))))%0000000",
  "00!!***!0000000%))))))%0000000",
  "00!***!!00000000%))))))%000000",
  "00!!**!!00000000%3)))))%000000",
  "00!!**!0000000000%)))))!000000",
  "00!!**!00000000000%*3)!!000000",
  "00!!*!!00000000000'*'!!!000000",
  "00!!**!&000000000'*''!!!000000",
  "00!!**!!000000000'*''!!!000000",
  "000**!!!000000000'*''!!!000000",
  "00!!*!!!000000000!!!'!!!000000",
  "00!***'!00000000$'*''!!0000000",
  "00!!*!!!00000000!'*''!!0000000",
  "00!!!!!!00000000!!!!'!00000000",
  "0000000000000000!'**'!00000000",
  "0000000000000000!'*!!000000000",
  "0000000000000000!!!**000000000",
  "000000000000000!!!***000000000",
  "000000000000000!!!''0000000000",
  "00000000000000!!!!!!!000000000",
  "00000000000000!!!!!!!!00000000",
  "00000000000000!!!!!!!!00000000",
  "000000000000000000000000000000",
  "000000000000000000000000000000",
  "000000000000000000000000000000",
  "000000000000000000000000000000",
};
