/* XPM */
static char *vampire_20[] = {
  /* width height ncolors chars_per_pixel */
  "30 66 19 1 0 0",
  /* colors */
  "! c #000000",
  "# c #8b0000",
  "$ c #44444c",
  "% c #9a1848",
  "& c #3a0000",
  "' c #16000e",
  "( c #8a7a82",
  ") c #6e0000",
  "* c #2e2e36",
  "+ c #9a9aa2",
  ", c #bcbcc8",
  "- c #a8a8b2",
  ". c #6c6c76",
  "/ c #cc2222",
  "0 c None",
  "1 c #d8d8e2",
  "2 c #e8e8f0",
  "3 c #1e0000",
  "4 c #500000",
  /* pixels */
  "000000000000000000000000000000",
  "00000000000000000000000000+0+0",
  "000000000000000000000000++2+2+",
  "000000000000000000000000+2++2+",
  "000000000000000000000000+222++",
  "000000000000000000000000+22+2+",
  "0000000000000000000000000++22+",
  "000000000000000000000000+2222+",
  "000000000000000000000000*222++",
  "000000000000//#//###0000+2222+",
  "0000000000000/##///#0000$+222+",
  "00000000000/##/#/###0000++222+",
  "000+00000000/#/#//#+0000+1222+",
  "00+2+++00000+#/##/##0000++222+",
  "00+222+00000+#/#//#+000+222#2+",
  "00+222+00000##/##/#000+222222+",
  "00++2+000000+#/##/##0+222##2+0",
  "00+222+00000+#####/+0+2#22++00",
  "00+222+00000++#/##+&.222#+0000",
  "00+222%000&&&&+)*+-+)2222+0000",
  "00+22200+&+))))).+))))22+00000",
  "00+222+++4)))))+*-))))++000000",
  "00+22+222)))))*.+))))&00000000",
  "0+22+2222))))+.*)))))&00000000",
  "0+2222224))++*++)))))&00000000",
  "0+222222++*))-**))))&000000000",
  "00+2++++00)*.++)))4)&000000000",
  "000+0000000**-)))44)&000000000",
  "00000000000*+)))))))&000000000",
  "0000000000*&&&&)))))&000000000",
  "0000000000*,,,,&&&&&&000000000",
  "000000000**&&&,,,,,,&000000000",
  "000000&&&)))))&&&,,,&000000000",
  "00000&)44))))))))&&&&000000000",
  "0000&'44))))))))4))4(000000000",
  "000&))))))))))4))))4&000000000",
  "00&)))))))))))4*)))))&00000000",
  "00&4)))))))))4*4)))))&00000000",
  "00&4)4)4!*&)4'&)4)))))&0000000",
  "00&!!!!*)!0&&&0&)))))4&0000000",
  "000!!!*!!0000000&)))))&0000000",
  "0000!'*''!000000&')))4&0000000",
  "0000!!!*!!0000000&4))4)&000000",
  "00000!!!!!!000000&)))))&000000",
  "00000!!*'*'000000&&)))))&00000",
  "000000!!!3*'0000000&4))4&00000",
  "000000!!!!!'0000000'!!!)!00000",
  "000000!!**'!0000000!**'!!00000",
  "0000000!!**'!000000'**'!!00000",
  "0000000!!!!!!000000'**'!!00000",
  "000000!!!***!000000!'*'!!00000",
  "000000!!***!!000000'*''!!00000",
  "000000!***'!000000!'**'!000000",
  "000000!!*!00000000!!'*'!000000",
  "000000000000000000!'*''!000000",
  "000000000000000000!'**'!000000",
  "000000000000000000!'**'0000000",
  "0000000000000000000'*!!0000000",
  "000000000000000000!'!**0000000",
  "000000000000000000'!****000000",
  "000000000000000000'!''''!00000",
  "000000000000000000!!!!!!!00000",
  "000000000000000000000000000000",
  "000000000000000000000000000000",
  "000000000000000000000000000000",
  "000000000000000000000000000000",
};
