/* XPM */
static char *vampire_20c[] = {
  /* width height ncolors chars_per_pixel */
  "30 66 16 1 0 0",
  /* colors */
  "! c #000000",
  "# c #8b0000",
  "$ c #a0a0aa",
  "% c #3a0000",
  "& c #16000e",
  "' c #8a7a82",
  "( c #6e0000",
  ") c #2e2e36",
  "* c #9a9aa2",
  "+ c #bcbcc8",
  ", c #a8a8b2",
  "- c #6c6c76",
  ". c #cc2222",
  "/ c None",
  "0 c #e8e8f0",
  "1 c #500000",
  /* pixels */
  "////////////////////////**////",
  "///////////////////////*00**//",
  "///////////////////////*00**//",
  "///////////////////////*0*0*//",
  "///////////////////////**0**//",
  "///////////////////////*000*//",
  "///////////////////////**0**//",
  "///////////////////////*000*//",
  "///////////////////////**00*//",
  "///////////..#..###////*000*//",
  "////////////.##...#/////**00*/",
  "//////////.##.#.###/////**00*/",
  "///////////.#.#..#*/////*000*/",
  "///////////*#.##.##////**000*/",
  "//*/*/*////*#.#..#*////*0000*/",
  "/*0***/////##.##.#/////*000*//",
  "/*000*/////*#.##.##////*000*//",
  "/*000*/////*#####.*///*0000*//",
  "//*00*/////**#.##*%//*0000*///",
  "/*000*//%%%%%*()*,%%*00000*///",
  "/*000*/%**1((*(-*(((00000*////",
  "/**00***1(((((*),((((000*/////",
  "/*00*00*((((()-*(((((00*//////",
  "/*0*0000(((((-)((((((0*///////",
  "/*000000(((()**(((((%*////////",
  "/*000$00((((,))((((%/*////////",
  "/*0000**%%)-**(((((%//////////",
  "//*00*////)),((11((%//////////",
  "///**////%)*(((1(((%//////////",
  "/////////)%%%%((((%///////////",
  "////%/%%%)++++%%%%%///////////",
  "//%1(%(1((%%%+++++%///////////",
  "//%((((((((((%%%+++%//////////",
  "//%1((((((((((((%%%%//////////",
  "//!(!((((((((((1((1'//////////",
  "//!!!1((((((((((1(1%//////////",
  "//!!!!(((((((1)1((((%/////////",
  "//!!!!((((((1)1(((((%/////////",
  "//!!!!))%%%1&%(1(((((%////////",
  "//!!!)))///%)/%((((((%////////",
  "//!!)))!///////%(((((%////////",
  "//!!!)!!////////%(((((%///////",
  "//!!)))!!///////%((((((%//////",
  "///!&)!!/////////%((((((%/////",
  "///!!)&!!////////%((((((%/////",
  "///!)))!!/////////%(((((%/////",
  "///!))!!//////////%((((1%/////",
  "///!!)!!!/////////%(((1!%/////",
  "///!!)!!!/////////%((1&!//////",
  "////!!!!//////////!(1&!!//////",
  "//////////////////!&)&!!//////",
  "//////////////////!!)&&!//////",
  "//////////////////!!)&&!//////",
  "//////////////////!&)&&!//////",
  "//////////////////!!)&&!//////",
  "//////////////////!!)&&!//////",
  "//////////////////!&)&&!//////",
  "//////////////////!!!!&!//////",
  "//////////////////!!!&&!//////",
  "//////////////////!&))&///////",
  "//////////////////!&)!!!//////",
  "//////////////////!&!)))//////",
  "//////////////////&!))))!/////",
  "///////////////////!&&&!!/////",
  "////////////////////!!!!!/////",
  "//////////////////////////////",
};
