/* XPM */
static char *vampire_25[] = {
  /* width height ncolors chars_per_pixel */
  "56 12 13 1 0 0",
  /* colors */
  "! c #000000",
  "# c #8b0000",
  "$ c #3a0000",
  "% c #16000e",
  "& c #6e0000",
  "' c #2e2e36",
  "( c #9a9aa2",
  ") c #bcbcc8",
  "* c #ff0000",
  "+ c #cc2222",
  ", c None",
  "- c #e8e8f0",
  ". c #500000",
  /* pixels */
  ",,,,,,,,,,,,,,,,,,,,,,,,,,,,,,,,,,,,,,,,,,,,,,,,,,,,,,,,",
  ",,+,,,,,,,,,,,,,,,,,,,,,,,,,,,,,,,,,,,,,,,,,,,,,,,,,,,,,",
  "+,#,((,(,,,,,,,,,,,,,,,,,,,,,,,,,,,,,,,,,,,,,,,,,,,,,,!!",
  "++##--(((((,,,,,$$$$*$$($****,,,,,,,,,,,,,,,,,,,,,,,,!%!",
  "##*--***-***$$$$$&&&***&&))$***$$,,,,,,,,,,,,,,,,,,,!'%!",
  "+#*--(-*---*****$&&&&&&*&))$.&***$$$,,,,,,,,,,,,,,,,!'%!",
  "#+###------*&((**(((&&&&*****&&&&&&$$$$$$$,,,,,,,,,!''%!",
  "##+*#(-(--(**(--*--**(((((($**((&&&&&&&&&.!!!!!!!!!!''%!",
  ",+#*#((----&*--------------((**((&&&&&&*&.!'%%%%%%*%!'%!",
  ",#++###--**&(*----**----------**(&&&&&&&*&.!''''''''%!!%",
  ",,####(((*((((----*--(---------*(&&.&&..&&&!''''''''!'%!",
  ",,,,,,,***(((&((((((((((((((((*******$$$$$$!!''''!!!!!!,",
};
