/* XPM */
static char *vampire_9[] = {
  /* width height ncolors chars_per_pixel */
  "28 42 13 1 0 0",
  /* colors */
  "! c #000000",
  "# c #8b0000",
  "$ c #3a0000",
  "% c #6e0000",
  "& c #6e0000",
  "' c #2e2e36",
  "( c #9a9aa2",
  ") c #bcbcc8",
  "* c #6c6c76",
  "+ c #cc2222",
  ", c None",
  "- c #e8e8f0",
  ". c #500000",
  /* pixels */
  ",,,,,,,,,,,,,,##+#++,,,,,,,,",
  ",,,,,,,,,,,,#+#+##+,,,,,,,,,",
  ",,,,,,,,,,,#+#+##+##+,,,,,,,",
  ",,,,,,,,,,,#+#+#--#,,,,,,,,,",
  ",,,,,,,,,,,#####---(,,,,,,,,",
  ",,,,,,,,,,,##((----(,,,,,,,,",
  ",,,,,,,,,,,(#(---((,,,,,,,,,",
  ",,,,,,,,,,,(--(----(,,,,,,,,",
  ",,,,,,,,,,$(----(-(,,,,,,,,,",
  ",,,,,,,,,(((--(---(,,,,,,,,,",
  ",,,,,,,,((((((((--(,,,,,,,,,",
  ",,,,,,,(----(.((((,,,,,,,,,,",
  ",,,,,,(-----(&&&..$,,,,,,,,,",
  ",,,,,,(-----(&&&&.$,(((,,,,,",
  ",,,,,(-(----(&&&&&$,(--(,,,,",
  ",,,,((-----(&&&&&&$(---(,,,,",
  ",,,,(-----(&&$&&&&(----(,,,,",
  ",,,,(-----(&&&$&&&$---((,,,,",
  ",,,(----((&&&&&&&&$((((,,,,,",
  ",,,(------(&&&&&&&((,,,,,,,,",
  ",,,(------(((&&&&&$,,,,,,,,,",
  ",,,,(------(((&&&$,,,,,,,,,,",
  ",,,,,((-------(&&$,,,,,,,,,,",
  ",,,,,,,(-------($$,,,,,,,,,,",
  ",,,,,,,,(((----())$,,,,,,,,,",
  ",,,,,,,,,$((--($$$$,,,,,,,,,",
  ",,,,,,,,$%%%(($$*%%$$$,,,,,,",
  ",,,,,,,$%%..&&&&$%%%%%$,,,,,",
  ",,,,,,,$&%%.%&&&$$&&&&&$$,,,",
  ",,,,,,,$&%&%%&&&&$&&&&&&&$,,",
  ",,,,,,,$&&&&&%%&&&$$&&&&.$,,",
  ",,,,,,,$&&$&&&&&&&$$&&&&&$,,",
  ",,,,,,,,$$$!!!!&&&$$&&&$&$,,",
  ",,,,,,,,,,!!!!!!&$$&&&$&&$,,",
  ",,,,,,,,,!!!*!!$$$!$$$$$$,,,",
  ",,,,,,,,!!**!!$$!!!,,,,,,,,,",
  ",,,,,,,!'**!!!!!'!!!!,,,,,,,",
  ",,,,,,,!'*!!!!!!'!!!!!,,,,,,",
  ",,,,,,,!!!'''!!!'''!!!!,,,,,",
  ",,,,,,,!!!!***!!!****!!,,,,,",
  ",,,,,,,,!!!!!!!!!!!!!!!,,,,,",
  ",,,,,,,,,!!!!!!!,!!!!!!,,,,,",
};
