/* XPM */
static char *vampire_20f[] = {
  /* width height ncolors chars_per_pixel */
  "30 66 18 1 0 0",
  /* colors */
  "! c #000000",
  "# c #8b0000",
  "$ c #1c0010",
  "% c #3a0000",
  "& c #3c0018",
  "' c #16000e",
  "( c #8a7a82",
  ") c #6e0000",
  "* c #2e2e36",
  "+ c #9a9aa2",
  ", c #bcbcc8",
  "- c #a8a8b2",
  ". c #6c6c76",
  "/ c #cc2222",
  "0 c None",
  "1 c #d8d8e2",
  "2 c #e8e8f0",
  "3 c #500000",
  /* pixels */
  "000000000000000000000000000000",
  "000000000000000000000000000000",
  "000000000000000000000000+0+0+0",
  "0000000000000000000000000+++2+",
  "000000000000000000000000+222++",
  "000000000000000000000000+2222+",
  "0000++++00000000000000000+22++",
  "000+222+00000000000000000+222+",
  "000+222+00000000000000000+22++",
  "000+22+00000//#//###00000+222+",
  "000+22+000000/##///#00000+222+",
  "00++2++0000/##/#/###00000+212+",
  "00+222+00000/#/#//#+0000+2222+",
  "00+22+000000+#/##/##0000+222+0",
  "00++1+000000+#/#//#+000+2222+0",
  "00+22+000000##/##/#000+2222+00",
  "00+22+000000+#/##/##0+222+2+00",
  "00+222+00000+#####/+0+2+22+000",
  "00+22+++0000++#/##+%++222+0000",
  "00+22222++%%%%+)*+-+2222+00000",
  "00+2222222+)))+).+))222+000000",
  "000+2222222))))+*-))+2+0000000",
  "000++2222)))))*.+))))+00000000",
  "0000++222))))).*)))))%00000000",
  "00000+++3))))*++)))))%00000000",
  "000000000+)))-**))))%000000000",
  "0000000000)*.++)))))%000000000",
  "00000000000**-)))3))%000000000",
  "00000000000*+)))33))%000000000",
  "0000000000*+)))))%%%%*00000000",
  "0000000000*.+%%%%,,,,*00000000",
  "0000000000*%%,,,,,%%%**%%%0000",
  "0000000000%,,,,%%%))-)))))%000",
  "00000000000%%%%))))))))))))%00",
  "0000000000%()))3))))))))))))%0",
  "0000000000%)))3)))))))))))))%0",
  "0000000000%)))%3))))))))))))%0",
  "0000000000%))))%3)))))))*))!%0",
  "0000000000)))))))%)))**!!)!!00",
  "000000000%))))))%0%%%0!!*!!!00",
  "000000000%)))))%000000!''!!000",
  "000000000%)))))%000000!!'!!000",
  "000000000%)))))%00000!!!!!!000",
  "00000000%)))))%000000'**!!0000",
  "00000000%)))))%00000!!!!!$0000",
  "00000000%))))%000000'!!!!!0000",
  "0000000%!!!!)%000000!'**!!0000",
  "0000000!!!'!%000000!'**!!00000",
  "0000000'**'!!000000!!!!!!00000",
  "000000!'*'!!!000000!***!!!0000",
  "000000!'*'!!!000000!!***!!0000",
  "000000!''*'!!000000!!'***!0000",
  "000000!''*'!!0000000!!!*!!0000",
  "000000!'**'!!00000000000000000",
  "000000&'**'!!00000000000000000",
  "000000!''*'!000000000000000000",
  "000000!'**'!000000000000000000",
  "0000000'**'!000000000000000000",
  "0000000'**'!000000000000000000",
  "000000!!!*'0000000000000000000",
  "0000***!'!00000000000000000000",
  "0000****!'00000000000000000000",
  "0000''''!'!0000000000000000000",
  "00000!!!!!!0000000000000000000",
  "000000000000000000000000000000",
  "000000000000000000000000000000",
};
