/* XPM */
static char *vampire_18[] = {
  /* width height ncolors chars_per_pixel */
  "30 66 16 1 0 0",
  /* colors */
  "! c #000000",
  "# c #8b0000",
  "$ c #3a0000",
  "% c #16000e",
  "& c #6e0000",
  "' c #2e2e36",
  "( c #9a9aa2",
  ") c #84848c",
  "* c #bcbcc8",
  "+ c #a8a8b2",
  ", c #6c6c76",
  "- c #cc2222",
  ". c None",
  "/ c #e8e8f0",
  "0 c #1e0000",
  "1 c #500000",
  /* pixels */
  ".......................(.(.(..",
  ".......................((((/(.",
  "........................(//((.",
  ".......................(//(/(.",
  "........................((/((.",
  "........................(///(.",
  "........................((/((.",
  ".........................(///(",
  ".........................(///(",
  "............--#--###.....(///(",
  ".............-##---#....(////(",
  "...........-##-#-###....)////(",
  "............-#-#--#(....((///(",
  "............(#-##-##....((///(",
  "............(#-#--#(....((///(",
  "............##-##-#.....(///(.",
  "............(#-##-##...(////(.",
  "...(........(#####-(..(/////(.",
  "..(/(((.....((#-##($..(/////(.",
  "..(///(..$$$$$(&'(+$$((////(..",
  "..(///(..$(&&&(&,(&&&/////(...",
  "..(///((($&&&&&('+&&&////(....",
  "...(//(/(&&&&&',(&&&&///(.....",
  "...(//(//&&&&(,'&&&&&&/(......",
  "..(//(///&&&('((&&&&&$/(......",
  "..(//(///(&&&+''&&&&$.(.......",
  "..(/(///(&&',((&&1&&$.........",
  "..(//////$&''+&&&1&&$.........",
  "..(////(..$'(&&&&&&&$.........",
  "..(///(...'$$$$$&&1$..........",
  "..((((....'****$$$$$..........",
  "...(...$$''$$$*****$..........",
  "....$.$1&&&&&&$$$$$$$.........",
  "...$1$1&&&&&&&&&&&&&$.........",
  "..$&&&&&&&&&&&&&1&&1$.........",
  "..$&&&&&&&&&&&&&&&&&$.........",
  "..$11&&&&&&&&&1'1&&&&$........",
  "..$!!'1&&&&&&1'1&&&&&$........",
  "..!!!%!'!$$$1%$&&&&&&&$.......",
  "..!!!'''....$'.$&&&&&&$.......",
  "...!!%!'!.......'&&&&&$.......",
  "...!!%''.........$&&&&&$......",
  "...!!'''!........$&&&&&$......",
  "...!!'''!........$&&&&&$......",
  "....!%''0........$&&&&&&$.....",
  "....!'''!!.......$&&&&&&$.....",
  "....!'''!!........$&&&&&$.....",
  "....!'''%!........$&&&&&$.....",
  ".....''!!!........!11&%!!.....",
  "....!!'%!!........!!!%%!!.....",
  "...!%%'%!!.........%'%%!!.....",
  "...!!!!!!..........!'%%!!.....",
  "...................!!%%!!.....",
  "...................!'%%!!.....",
  "..................!!'%%!......",
  "..................!!!%%!......",
  "..................!!'%%!......",
  "..................!%'%%!......",
  "..................!%'!%!......",
  "..................!!!!%!......",
  "..................!!''%.......",
  "...................%'!!!......",
  "..................!%!'''......",
  "..................%!''''......",
  "..................%!%%%%!.....",
  "...................!!!!!!.....",
};
