/* XPM */
static char *shotgun_4[] = {
  "20 18 6 1 0 0",
  "K c #000000",
  "M c #3a3a3a",
  "m c #8a8a8a",
  "W c #9c5a26",
  "w c #5c3416",
  ". c None",
  "....................",
  "....................",
  ".........KKKKKKKKKKK",
  "........KMmmmmmmmmmM",
  ".......KMMMMMMMMMMMM",
  ".......KMmmmmmmmmmmM",
  "......KKMMMMMMMMMMMK",
  ".....KWwKMMMMMMMMKK.",
  "....KWWwwKKKKKKKK...",
  "...KWWWWWwwwK.......",
  "..KWWWWWWWwK........",
  "..KwWWWWWWK.........",
  "..KwwWWWWK..........",
  "...KwwWWK...........",
  "...KwwWK............",
  "....KwK.............",
  "....KK..............",
  "....................",
};
