/* XPM */
static char *singularity_4[] = {
  "20 18 7 1 0 0",
  "K c #000000",
  "V c #5010a0",
  "v c #8040d0",
  "P c #c060ff",
  "o c #e0a0ff",
  "# c #200030",
  ". c None",
  "....................",
  ".........KKKKK......",
  "........KPooPK......",
  ".......KPo##oPK.....",
  "...KKKKKPo##oPK.....",
  "..KVvvvVKPooPK......",
  "..KVvvvvVKKKK.......",
  "..KVvPPvVK..........",
  "..KVvPPvVK..........",
  "..KVvvvvVKKK........",
  "...KVvvvVVVK........",
  "....KKKKVVVK........",
  "......KVVK..........",
  "......KVVK..........",
  "......KVVK..........",
  ".....KVVK...........",
  ".....KK.............",
  "....................",
};
